src/assets/duotone/Cup.svg

<svg width="24" height="24" viewBox="0 0 24 24"  xmlns="http://www.w3.org/2000/svg">
<path opacity="0.4" d="M18 20.5H17V20.25C17 19.15 16.1 18.25 15 18.25H12.75V15.96C12.5 15.99 12.25 16 12 16C11.75 16 11.5 15.99 11.25 15.96V18.25H9C7.9 18.25 7 19.15 7 20.25V20.5H6C5.59 20.5 5.25 20.84 5.25 21.25C5.25 21.66 5.59 22 6 22H18C18.41 22 18.75 21.66 18.75 21.25C18.75 20.84 18.41 20.5 18 20.5Z" />
<path opacity="0.4" d="M5.51979 11.64C4.85979 11.39 4.27979 10.98 3.81979 10.52C2.88979 9.49 2.27979 8.26 2.27979 6.82C2.27979 5.38 3.40979 4.25 4.84979 4.25H5.40979C5.14979 4.78 4.99979 5.37 4.99979 6V9C4.99979 9.94 5.17979 10.83 5.51979 11.64Z" />
<path opacity="0.4" d="M21.72 6.82C21.72 8.26 21.11 9.49 20.18 10.52C19.72 10.98 19.14 11.39 18.48 11.64C18.82 10.83 19 9.94 19 9V6C19 5.37 18.85 4.78 18.59 4.25H19.15C20.59 4.25 21.72 5.38 21.72 6.82Z" />
<path d="M15 2H9C6.79 2 5 3.79 5 6V9C5 12.87 8.13 16 12 16C15.87 16 19 12.87 19 9V6C19 3.79 17.21 2 15 2ZM14.84 8.45L14.22 9.21C14.12 9.32 14.05 9.54 14.06 9.69L14.12 10.67C14.16 11.27 13.73 11.58 13.17 11.36L12.26 11C12.12 10.95 11.88 10.95 11.74 11L10.83 11.36C10.27 11.58 9.84 11.27 9.88 10.67L9.94 9.69C9.95 9.54 9.88 9.32 9.78 9.21L9.16 8.45C8.77 7.99 8.94 7.48 9.52 7.33L10.47 7.09C10.62 7.05 10.8 6.91 10.88 6.78L11.41 5.96C11.74 5.45 12.26 5.45 12.59 5.96L13.12 6.78C13.2 6.91 13.38 7.05 13.53 7.09L14.48 7.33C15.06 7.48 15.23 7.99 14.84 8.45Z" />
<path opacity="0.4" d="M14.8402 8.44965L14.2202 9.20965C14.1202 9.31965 14.0502 9.53965 14.0602 9.68965L14.1202 10.6696C14.1602 11.2696 13.7302 11.5796 13.1702 11.3596L12.2602 10.9996C12.1202 10.9496 11.8802 10.9496 11.7402 10.9996L10.8302 11.3596C10.2702 11.5796 9.84024 11.2696 9.88024 10.6696L9.94023 9.68965C9.95023 9.53965 9.88023 9.31965 9.78023 9.20965L9.16023 8.44965C8.77024 7.98965 8.94024 7.47965 9.52024 7.32965L10.4702 7.08965C10.6202 7.04965 10.8002 6.90965 10.8802 6.77965L11.4102 5.95965C11.7402 5.44965 12.2602 5.44965 12.5902 5.95965L13.1202 6.77965C13.2002 6.90965 13.3802 7.04965 13.5302 7.08965L14.4802 7.32965C15.0602 7.47965 15.2302 7.98965 14.8402 8.44965Z" />
</svg>

<?xml version="1.0" encoding="UTF-8"?>
<svg width="24" height="24" viewBox="0 0 24 24" xmlns="http://www.w3.org/2000/svg">
 <path d="m18 20.5h-1v-0.25c0-1.1-0.9-2-2-2h-2.25v-2.29c-0.25 0.03-0.5 0.04-0.75 0.04s-0.5-0.01-0.75-0.04v2.29h-2.25c-1.1 0-2 0.9-2 2v0.25h-1c-0.41 0-0.75 0.34-0.75 0.75s0.34 0.75 0.75 0.75h12c0.41 0 0.75-0.34 0.75-0.75s-0.34-0.75-0.75-0.75z" opacity=".4"/>
 <path d="m5.5198 11.64c-0.66-0.25-1.24-0.66-1.7-1.12-0.93-1.03-1.54-2.26-1.54-3.7s1.13-2.57 2.57-2.57h0.56c-0.26 0.53-0.41 1.12-0.41 1.75v3c0 0.94 0.18 1.83 0.52 2.64z" opacity=".4"/>
 <path d="m21.72 6.82c0 1.44-0.61 2.67-1.54 3.7-0.46 0.46-1.04 0.87-1.7 1.12 0.34-0.81 0.52-1.7 0.52-2.64v-3c0-0.63-0.15-1.22-0.41-1.75h0.56c1.44 0 2.57 1.13 2.57 2.57z" opacity=".4"/>
 <path d="m15 2h-6c-2.21 0-4 1.79-4 4v3c0 3.87 3.13 7 7 7s7-3.13 7-7v-3c0-2.21-1.79-4-4-4zm-0.16 6.45-0.62 0.76c-0.1 0.11-0.17 0.33-0.16 0.48l0.06 0.98c0.04 0.6-0.39 0.91-0.95 0.69l-0.91-0.36c-0.14-0.05-0.38-0.05-0.52 0l-0.91 0.36c-0.56 0.22-0.99-0.09-0.95-0.69l0.06-0.98c0.01-0.15-0.06-0.37-0.16-0.48l-0.62-0.76c-0.39-0.46-0.22-0.97 0.36-1.12l0.95-0.24c0.15-0.04 0.33-0.18 0.41-0.31l0.53-0.82c0.33-0.51 0.85-0.51 1.18 0l0.53 0.82c0.08 0.13 0.26 0.27 0.41 0.31l0.95 0.24c0.58 0.15 0.75 0.66 0.36 1.12z"/>
 <path d="m14.84 8.4496-0.62 0.76c-0.1 0.11-0.17 0.33-0.16 0.48l0.06 0.97995c0.04 0.6-0.39 0.91-0.95 0.69l-0.91-0.36c-0.14-0.05-0.38-0.05-0.52 0l-0.91 0.36c-0.56 0.22-0.98996-0.09-0.94996-0.69l0.05999-0.97995c0.01-0.15-0.06-0.37-0.16-0.48l-0.62-0.76c-0.38999-0.46-0.21999-0.97 0.36001-1.12l0.94996-0.24c0.15-0.04 0.33-0.18 0.41-0.31l0.53-0.82c0.33-0.51 0.85-0.51 1.18 0l0.53 0.82c0.08 0.13 0.26 0.27 0.41 0.31l0.95 0.24c0.58 0.15 0.75 0.66 0.36 1.12z" opacity=".4"/>
</svg>
